static/img/icons8-data-transfer.svg

<svg width="96" height="96" viewBox="0 0 96 96" fill="none" xmlns="http://www.w3.org/2000/svg">
<path d="M80.0001 36V26C80.0001 24.9 79.1001 24 78.0001 24H28.0001V16.08C28.0001 14.26 25.9201 13.32 24.6601 14.58L11.2401 27.98C9.58012 29.62 9.58012 32.38 11.2401 34.02L15.2201 38L24.6602 47.42C25.9202 48.68 28.0002 47.74 28.0002 45.92V38L78.0001 38C79.1001 38 80.0001 37.1 80.0001 36Z" fill="white"/>
<path d="M71.34 46.58L84.76 59.98C86.42 61.62 86.42 64.38 84.76 66.02L80.78 70L71.34 79.42C70.08 80.68 68 79.74 68 77.92V70H18C16.9 70 16 69.1 16 68V58C16 56.9 16.9 56 18 56H68V48.08C68 46.26 70.08 45.32 71.34 46.58Z" fill="white"/>
</svg>

<svg xmlns="http://www.w3.org/2000/svg" width="96" height="96" fill="none" viewBox="0 0 96 96"><path fill="#fff" d="M80 36V26c0-1.1-.9-2-2-2H28v-7.92c0-1.82-2.08-2.76-3.34-1.5l-13.42 13.4c-1.66 1.64-1.66 4.4 0 6.04L15.22 38l9.44 9.42c1.26 1.26 3.34.32 3.34-1.5V38h50c1.1 0 2-.9 2-2m-8.66 10.58 13.42 13.4c1.66 1.64 1.66 4.4 0 6.04L80.78 70l-9.44 9.42c-1.26 1.26-3.34.32-3.34-1.5V70H18c-1.1 0-2-.9-2-2V58c0-1.1.9-2 2-2h50v-7.92c0-1.82 2.08-2.76 3.34-1.5"/></svg>
